X: 1
T:Harrison's Celebrat:ed -- Reel
M:2/4
L:1/16
R:reel
K:A
u(AB) |\
cAFA .E2(eg) | aefa edcB | cAFA .E2(AB) | cABc .A2(AB) |
cAFA .E2(eg) | aefa edcB | cAFA .E2(Ac) | cABG A2  :|
|:E2 |\
Aceg .a2(fa) | .g2(fa) ecdB | Aceg afed | cABc A2E2 |
Aceg .a2(fa) | .g2(fg) fecB | Aceg afed | cABc A2  :|
